; generated by Slic3r Prusa Edition 1.41.1+win64 on 2019-01-25 at 15:52:01

; 

; external perimeters extrusion width = 0.42mm
; perimeters extrusion width = 0.45mm
; infill extrusion width = 0.45mm
; solid infill extrusion width = 0.45mm
; top infill extrusion width = 0.40mm
; first layer extrusion width = 0.45mm

M73 P0 R17
M73 Q0 S17
M201 X1000 Y1000 Z1000 E5000 ; sets maximum accelerations, mm/sec^2
M203 X200 Y200 Z12 E120 ; sets maximum feedrates, mm/sec
M204 P1250 R1250 T1250 ; sets acceleration (P, T) and retract acceleration (R), mm/sec^2
M205 X8.00 Y8.00 Z0.40 E1.50 ; sets the jerk limits, mm/sec
M205 S0 T0 ; sets the minimum extruding and travel feed rate, mm/sec
M107
M115 U3.4.2 ; tell printer latest fw version
M83  ; extruder relative mode
M104 S230 ; set extruder temp
M140 S85 ; set bed temp
M190 S85 ; wait for bed temp
M109 S230 ; wait for extruder temp
G28 W ; home all without mesh bed level
G80 ; mesh bed leveling
G1 Y-3.0 F1000.0 ; go outside print area
G92 E0.0
G1 X60.0 E9.0  F1000.0 ; intro line
M73 Q0 S17
M73 P0 R17
G1 X100.0 E12.5  F1000.0 ; intro line
G92 E0.0
M900 K45; Filament gcode
G21 ; set units to millimeters
G90 ; use absolute coordinates
M83 ; use relative distances for extrusion
;BEFORE_LAYER_CHANGE
G92 E0.0
;0.25


G1 E-0.80000 F2100.00000
G1 Z0.240 F10200.000
;AFTER_LAYER_CHANGE
;0.25
G1 Z0.840
G1 X109.435 Y95.392
G1 Z0.240
G1 E0.80000 F2100.00000
M204 S300
G1 F840
G1 X110.287 Y95.188 E0.03612
G1 X130.315 Y95.186 E0.82507
G1 X131.787 Y95.279 E0.06074
G1 X133.018 Y95.491 E0.05144
G1 X134.208 Y95.831 E0.05099
G1 X135.572 Y96.384 E0.06063
G1 X136.787 Y97.055 E0.05717
G1 X137.975 Y97.911 E0.06033
G1 X138.904 Y98.745 E0.05145
G1 X139.739 Y99.674 E0.05145
G1 X140.600 Y100.873 E0.06079
G1 X141.305 Y102.168 E0.06078
G1 X141.779 Y103.320 E0.05130
G1 X142.129 Y104.523 E0.05160
G1 X142.385 Y105.976 E0.06078
G1 X142.458 Y107.449 E0.06079
G1 X142.385 Y108.696 E0.05144
G1 X142.181 Y109.917 E0.05099
G1 X141.780 Y111.345 E0.06108
G1 X141.211 Y112.698 E0.06048
G1 X140.531 Y113.900 E0.05691
G1 X139.810 Y114.910 E0.05109
G1 X138.980 Y115.843 E0.05145
G1 X137.799 Y116.899 E0.06529
G1 X136.772 Y117.623 E0.05175
G1 X135.593 Y118.275 E0.05552
G1 X134.335 Y118.798 E0.05612
G1 X133.136 Y119.147 E0.05145
G1 X131.650 Y119.409 E0.06214
G1 X130.318 Y119.483 E0.05497
G1 X110.316 Y119.482 E0.82401
G1 X109.551 Y119.327 E0.03212
G1 X108.889 Y118.915 E0.03212
G1 X108.357 Y118.183 E0.03730
G1 X108.165 Y117.298 E0.03730
G1 X108.166 Y97.326 E0.82276
G1 X108.323 Y96.566 E0.03197
G1 X108.732 Y95.911 E0.03182
G1 X109.386 Y95.428 E0.03350
M204 S800
; PURGING FINISHED
G1 F8160
G1 X110.287 Y95.188 E-0.22795
G1 X112.464 Y95.188 E-0.53205
G1 E-0.04000 F2100.00000
G1 Z0.840 F10200.000
G1 X127.297 Y112.717
G1 Z0.240
G1 E0.80000 F2100.00000
M204 S300
G1 F840
G1 X127.586 Y112.427 E0.01688
G1 X127.922 Y112.192 E0.01688
G1 X128.293 Y112.019 E0.01688
G1 X128.689 Y111.913 E0.01688
G1 X129.081 Y111.879 E0.01618
G1 X129.505 Y111.913 E0.01754
G1 X129.902 Y112.019 E0.01692
G1 X130.273 Y112.192 E0.01688
G1 X130.609 Y112.427 E0.01688
G1 X130.899 Y112.717 E0.01688
G1 X131.124 Y113.039 E0.01618
G1 X131.307 Y113.423 E0.01754
G1 X131.413 Y113.820 E0.01692
G1 X131.449 Y114.228 E0.01688
G1 X131.413 Y114.637 E0.01688
G1 X131.307 Y115.032 E0.01688
G1 X131.134 Y115.404 E0.01688
G1 X130.899 Y115.739 E0.01688
G1 X130.609 Y116.029 E0.01688
G1 X130.273 Y116.264 E0.01688
G1 X129.902 Y116.438 E0.01688
G1 X129.506 Y116.544 E0.01688
G1 X129.098 Y116.579 E0.01688
G1 X128.689 Y116.544 E0.01688
G1 X128.293 Y116.438 E0.01688
G1 X127.922 Y116.264 E0.01688
G1 X127.586 Y116.029 E0.01688
G1 X127.297 Y115.739 E0.01688
G1 X127.062 Y115.404 E0.01688
G1 X126.888 Y115.032 E0.01688
G1 X126.782 Y114.637 E0.01688
G1 X126.747 Y114.228 E0.01688
G1 X126.782 Y113.820 E0.01688
G1 X126.888 Y113.424 E0.01688
G1 X127.062 Y113.053 E0.01688
G1 X127.262 Y112.766 E0.01441
M204 S800
G1 X127.160 Y112.341 F10200.000
G1 X127.697 Y111.866
M204 S300
G1 F840
G1 X127.668 Y111.471 E0.01633
G1 X127.851 Y111.599 E0.00922
G1 X128.054 Y111.693 E0.00922
G1 X127.749 Y111.836 E0.01388
M204 S800
G1 F8160
G1 X127.668 Y111.471 E-0.09145
G1 X127.851 Y111.599 E-0.05469
G1 X128.054 Y111.693 E-0.05469
G1 X127.749 Y111.836 E-0.08238
G1 E-0.51678 F2100.00000
G1 Z0.840 F10200.000
G1 X125.781 Y109.221
G1 Z0.240
G1 E0.80000 F2100.00000
M204 S300
G1 F840
G1 X125.396 Y109.124 E0.01633
G1 X125.627 Y108.800 E0.01640
G1 X125.686 Y109.019 E0.00934
G1 X125.755 Y109.167 E0.00674
M204 S800
G1 X125.358 Y109.519 F10200.000
M204 S300
G1 F840
G1 X125.755 Y109.625 E0.01692
G1 X126.126 Y109.798 E0.01688
G1 X126.462 Y110.033 E0.01688
G1 X126.752 Y110.323 E0.01688
G1 X126.987 Y110.659 E0.01688
G1 X127.160 Y111.030 E0.01688
G1 X127.266 Y111.426 E0.01688
G1 X127.302 Y111.834 E0.01688
G1 X127.266 Y112.242 E0.01688
G1 X127.160 Y112.638 E0.01688
G1 X126.987 Y113.010 E0.01688
G1 X126.752 Y113.345 E0.01688
G1 X126.462 Y113.635 E0.01688
G1 X126.126 Y113.870 E0.01688
G1 X125.755 Y114.043 E0.01688
G1 X125.359 Y114.149 E0.01688
G1 X124.951 Y114.185 E0.01688
G1 X124.543 Y114.149 E0.01688
G1 X124.147 Y114.043 E0.01688
G1 X123.775 Y113.870 E0.01688
G1 X123.440 Y113.635 E0.01688
G1 X123.150 Y113.345 E0.01688
G1 X122.915 Y113.010 E0.01688
G1 X122.742 Y112.638 E0.01688
G1 X122.635 Y112.242 E0.01688
G1 X122.600 Y111.834 E0.01688
G1 X122.635 Y111.426 E0.01688
G1 X122.742 Y111.030 E0.01688
G1 X122.915 Y110.659 E0.01688
G1 X123.150 Y110.323 E0.01688
G1 X123.440 Y110.033 E0.01688
G1 X123.775 Y109.798 E0.01688
G1 X124.147 Y109.625 E0.01688
G1 X124.543 Y109.519 E0.01688
G1 X124.934 Y109.485 E0.01618
G1 X125.298 Y109.514 E0.01507
M204 S800
G1 X125.615 Y109.212 F10200.000
G1 F8160
G1 X125.755 Y109.625 E-0.11485
G1 X126.126 Y109.798 E-0.10019
G1 X126.462 Y110.033 E-0.10019
G1 X126.752 Y110.323 E-0.10019
G1 X126.987 Y110.659 E-0.10019
G1 X127.160 Y111.030 E-0.10019
G1 X127.266 Y111.426 E-0.10019
G1 X127.282 Y111.605 E-0.04398
G1 E-0.04000 F2100.00000
G1 Z0.840 F10200.000
G1 X125.628 Y105.867
G1 Z0.240
G1 E0.80000 F2100.00000
M204 S300
G1 F840
G1 X125.396 Y105.545 E0.01633
G1 X125.781 Y105.448 E0.01633
G1 X125.686 Y105.651 E0.00922
G1 X125.644 Y105.809 E0.00674
M204 S800
G1 X125.349 Y106.159 F10200.000
M204 S300
G1 F840
G1 X125.515 Y106.515 E0.01618
G1 X125.628 Y106.926 E0.01754
G1 X125.664 Y107.335 E0.01692
G1 X125.628 Y107.743 E0.01688
G1 X125.522 Y108.139 E0.01688
G1 X125.356 Y108.495 E0.01618
G1 X125.115 Y108.845 E0.01754
G1 X124.824 Y109.136 E0.01692
G1 X124.489 Y109.371 E0.01688
G1 X124.117 Y109.544 E0.01688
G1 X123.721 Y109.650 E0.01688
G1 X123.313 Y109.686 E0.01688
G1 X122.905 Y109.650 E0.01688
G1 X122.509 Y109.544 E0.01688
G1 X122.138 Y109.371 E0.01688
G1 X121.802 Y109.136 E0.01688
G1 X121.512 Y108.846 E0.01688
G1 X121.277 Y108.510 E0.01688
G1 X121.104 Y108.139 E0.01688
G1 X120.998 Y107.743 E0.01688
G1 X120.962 Y107.335 E0.01688
G1 X120.998 Y106.926 E0.01688
G1 X121.104 Y106.530 E0.01688
G1 X121.277 Y106.159 E0.01688
G1 X121.512 Y105.823 E0.01688
G1 X121.802 Y105.534 E0.01688
G1 X122.138 Y105.299 E0.01688
G1 X122.509 Y105.125 E0.01688
G1 X122.905 Y105.019 E0.01688
G1 X123.296 Y104.985 E0.01618
G1 X123.721 Y105.019 E0.01754
G1 X124.117 Y105.125 E0.01692
G1 X124.489 Y105.299 E0.01688
G1 X124.824 Y105.534 E0.01688
G1 X125.114 Y105.823 E0.01688
G1 X125.315 Y106.110 E0.01441
M204 S800
G1 X125.742 Y106.159 F10200.000
G1 X125.359 Y105.150
M204 S300
G1 F840
G1 X124.951 Y105.186 E0.01688
G1 X124.543 Y105.150 E0.01688
G1 X124.147 Y105.044 E0.01688
G1 X123.775 Y104.871 E0.01688
G1 X123.440 Y104.636 E0.01688
G1 X123.150 Y104.346 E0.01688
G1 X122.915 Y104.011 E0.01688
G1 X122.749 Y103.655 E0.01618
G1 X122.636 Y103.244 E0.01754
G1 X122.600 Y102.835 E0.01692
G1 X122.635 Y102.427 E0.01688
G1 X122.742 Y102.031 E0.01688
G1 X122.915 Y101.660 E0.01688
G1 X123.150 Y101.324 E0.01688
G1 X123.440 Y101.034 E0.01688
G1 X123.775 Y100.799 E0.01688
G1 X124.147 Y100.626 E0.01688
G1 X124.543 Y100.520 E0.01688
G1 X124.934 Y100.486 E0.01618
G1 X125.358 Y100.520 E0.01754
G1 X125.755 Y100.626 E0.01692
G1 X126.126 Y100.799 E0.01688
G1 X126.462 Y101.034 E0.01688
G1 X126.752 Y101.324 E0.01688
G1 X126.987 Y101.660 E0.01688
G1 X127.153 Y102.015 E0.01618
G1 X127.266 Y102.426 E0.01754
G1 X127.302 Y102.835 E0.01692
G1 X127.266 Y103.243 E0.01688
G1 X127.160 Y103.639 E0.01688
G1 X126.987 Y104.011 E0.01688
G1 X126.752 Y104.346 E0.01688
G1 X126.462 Y104.636 E0.01688
G1 X126.126 Y104.871 E0.01688
G1 X125.755 Y105.044 E0.01688
G1 X125.417 Y105.135 E0.01441
M204 S800
G1 X125.222 Y105.526 F10200.000
G1 F8160
G1 X124.951 Y105.186 E-0.11467
G1 X124.543 Y105.150 E-0.10019
G1 X124.147 Y105.044 E-0.10019
G1 X123.775 Y104.871 E-0.10019
G1 X123.440 Y104.636 E-0.10019
G1 X123.150 Y104.346 E-0.10019
G1 X122.915 Y104.011 E-0.10019
G1 X122.838 Y103.847 E-0.04417
G1 E-0.04000 F2100.00000
G1 Z0.840 F10200.000
G1 X127.668 Y103.199
G1 Z0.240
G1 E0.80000 F2100.00000
M204 S300
G1 F840
G1 X127.697 Y102.803 E0.01633
G1 X128.054 Y102.976 E0.01633
G1 X127.851 Y103.070 E0.00922
G1 X127.717 Y103.164 E0.00674
M204 S800
G1 X128.050 Y103.415 F10200.000
M204 S300
G1 F840
G1 X128.765 Y103.081 E0.03250
G1 X129.527 Y102.877 E0.03250
G1 X130.284 Y102.811 E0.03129
G1 X131.098 Y102.877 E0.03367
G1 X131.861 Y103.081 E0.03253
G1 X132.576 Y103.415 E0.03250
G1 X133.222 Y103.867 E0.03250
G1 X133.780 Y104.425 E0.03250
G1 X134.233 Y105.072 E0.03250
G1 X134.566 Y105.787 E0.03250
G1 X134.770 Y106.549 E0.03250
G1 X134.839 Y107.335 E0.03250
G1 X134.770 Y108.121 E0.03250
G1 X134.566 Y108.883 E0.03250
G1 X134.233 Y109.598 E0.03250
G1 X133.780 Y110.244 E0.03250
G1 X133.222 Y110.802 E0.03250
G1 X132.576 Y111.254 E0.03250
G1 X131.861 Y111.588 E0.03250
G1 X131.099 Y111.792 E0.03250
G1 X130.313 Y111.861 E0.03250
G1 X129.527 Y111.792 E0.03250
G1 X128.765 Y111.588 E0.03250
G1 X128.050 Y111.254 E0.03250
G1 X127.404 Y110.802 E0.03250
G1 X126.846 Y110.244 E0.03250
G1 X126.393 Y109.598 E0.03250
G1 X126.060 Y108.883 E0.03250
G1 X125.856 Y108.121 E0.03250
G1 X125.787 Y107.335 E0.03250
G1 X125.856 Y106.549 E0.03250
G1 X126.060 Y105.787 E0.03250
G1 X126.393 Y105.072 E0.03250
G1 X126.846 Y104.425 E0.03250
G1 X127.404 Y103.867 E0.03250
G1 X128.001 Y103.449 E0.03003
M204 S800
G1 X128.050 Y103.015 F10200.000
G1 F8160
G1 X128.765 Y103.081 E-0.20735
G1 X129.527 Y102.877 E-0.19289
G1 X130.284 Y102.811 E-0.18568
G1 X130.994 Y102.869 E-0.17409
G1 E-0.04000 F2100.00000
G1 Z0.840 F10200.000
G1 X130.944 Y102.467
G1 Z0.240
G1 E0.80000 F2100.00000
M204 S300
G1 F840
G1 X131.222 Y102.182 E0.01639
G1 X131.384 Y102.543 E0.01633
G1 X131.166 Y102.485 E0.00930
G1 X131.004 Y102.472 E0.00670
M204 S800
G1 F8160
G1 X131.222 Y102.182 E-0.08867
G1 X131.384 Y102.543 E-0.09694
G1 X131.166 Y102.485 E-0.05519
G1 X131.004 Y102.472 E-0.03976
G1 E-0.51944 F2100.00000
G1 Z0.840 F10200.000
G1 X133.927 Y104.011
G1 Z0.240
G1 E0.80000 F2100.00000
M204 S300
G1 F840
G1 X134.321 Y103.971 E0.01633
G1 X134.213 Y104.353 E0.01633
G1 X134.085 Y104.170 E0.00922
G1 X133.969 Y104.054 E0.00674
M204 S800
G1 X134.682 Y104.136 F10200.000
M204 S300
G1 F840
G1 X134.855 Y103.765 E0.01688
G1 X135.090 Y103.429 E0.01688
G1 X135.380 Y103.139 E0.01688
G1 X135.715 Y102.904 E0.01688
G1 X136.087 Y102.731 E0.01688
G1 X136.483 Y102.625 E0.01688
G1 X136.874 Y102.591 E0.01618
G1 X137.298 Y102.625 E0.01754
G1 X137.695 Y102.731 E0.01692
G1 X138.066 Y102.904 E0.01688
G1 X138.402 Y103.139 E0.01688
G1 X138.692 Y103.429 E0.01688
G1 X138.927 Y103.765 E0.01688
G1 X139.093 Y104.121 E0.01618
G1 X139.206 Y104.531 E0.01754
G1 X139.242 Y104.940 E0.01692
G1 X139.206 Y105.349 E0.01688
G1 X139.100 Y105.745 E0.01688
G1 X138.927 Y106.116 E0.01688
G1 X138.692 Y106.452 E0.01688
G1 X138.402 Y106.741 E0.01688
G1 X138.066 Y106.977 E0.01688
G1 X137.695 Y107.150 E0.01688
G1 X137.299 Y107.256 E0.01688
G1 X136.891 Y107.292 E0.01688
G1 X136.483 Y107.256 E0.01688
G1 X136.087 Y107.150 E0.01688
G1 X135.715 Y106.977 E0.01688
G1 X135.380 Y106.741 E0.01688
G1 X135.090 Y106.452 E0.01688
G1 X134.855 Y106.116 E0.01688
G1 X134.682 Y105.745 E0.01688
G1 X134.576 Y105.349 E0.01688
G1 X134.540 Y104.940 E0.01688
G1 X134.576 Y104.532 E0.01688
G1 X134.666 Y104.194 E0.01441
M204 S800
G1 X134.425 Y103.830 F10200.000
G1 F8160
G1 X134.855 Y103.765 E-0.11467
G1 X135.090 Y103.429 E-0.10019
G1 X135.380 Y103.139 E-0.10019
G1 X135.715 Y102.904 E-0.10019
G1 X136.087 Y102.731 E-0.10019
G1 X136.483 Y102.625 E-0.10019
G1 X136.874 Y102.591 E-0.09601
G1 X137.071 Y102.607 E-0.04835
G1 E-0.04000 F2100.00000
G1 Z0.840 F10200.000
G1 X136.914 Y101.799
G1 Z0.240
G1 E0.80000 F2100.00000
M204 S300
G1 F840
G1 X136.950 Y101.380 E0.01730
G1 X137.343 Y101.833 E0.02468
G1 X136.974 Y101.804 E0.01525
M204 S800
G1 X136.414 Y102.233 F10200.000
M204 S300
G1 F840
G1 X136.383 Y102.242 E0.00132
G1 X136.520 Y101.750 E0.02104
G1 X136.562 Y101.272 E0.01974
G1 X136.520 Y100.793 E0.01983
G1 X136.355 Y100.244 E0.02359
G1 X136.909 Y100.739 E0.03058
G1 X137.606 Y101.519 E0.04309
G1 X138.192 Y102.345 E0.04173
G1 X138.341 Y102.613 E0.01262
G1 X138.265 Y102.560 E0.00380
G1 X137.831 Y102.357 E0.01974
G1 X137.366 Y102.233 E0.01983
G1 X136.872 Y102.193 E0.02040
G1 X136.473 Y102.228 E0.01650
M204 S800
G1 X136.022 Y102.077 F10200.000
M204 S300
G1 F840
G1 X135.849 Y102.448 E0.01688
G1 X135.614 Y102.784 E0.01688
G1 X135.324 Y103.073 E0.01688
G1 X134.989 Y103.308 E0.01688
G1 X134.617 Y103.482 E0.01688
G1 X134.221 Y103.588 E0.01688
G1 X133.813 Y103.623 E0.01688
G1 X133.405 Y103.588 E0.01688
G1 X133.009 Y103.482 E0.01688
G1 X132.638 Y103.308 E0.01688
G1 X132.302 Y103.073 E0.01688
G1 X132.012 Y102.784 E0.01688
G1 X131.777 Y102.448 E0.01688
G1 X131.604 Y102.077 E0.01688
G1 X131.498 Y101.681 E0.01688
G1 X131.462 Y101.272 E0.01688
G1 X131.498 Y100.864 E0.01688
G1 X131.604 Y100.468 E0.01688
G1 X131.777 Y100.097 E0.01688
G1 X132.012 Y99.761 E0.01688
G1 X132.302 Y99.471 E0.01688
G1 X132.638 Y99.236 E0.01688
G1 X133.009 Y99.063 E0.01688
G1 X133.405 Y98.957 E0.01688
G1 X133.796 Y98.923 E0.01618
G1 X134.221 Y98.957 E0.01754
G1 X134.617 Y99.063 E0.01692
G1 X134.989 Y99.236 E0.01688
G1 X135.324 Y99.471 E0.01688
G1 X135.614 Y99.761 E0.01688
G1 X135.849 Y100.097 E0.01688
G1 X136.015 Y100.453 E0.01618
G1 X136.128 Y100.863 E0.01754
G1 X136.164 Y101.272 E0.01692
G1 X136.128 Y101.681 E0.01688
G1 X136.038 Y102.019 E0.01441
M204 S800
G1 X136.280 Y102.383 F10200.000
G1 F8160
G1 X135.849 Y102.448 E-0.11467
G1 X135.614 Y102.784 E-0.10019
G1 X135.324 Y103.073 E-0.10019
G1 X134.989 Y103.308 E-0.10019
G1 X134.617 Y103.482 E-0.10019
G1 X134.221 Y103.588 E-0.10019
G1 X133.813 Y103.623 E-0.10019
G1 X133.633 Y103.608 E-0.04417
G1 E-0.04000 F2100.00000
G1 Z0.840 F10200.000
G1 X132.158 Y98.604
G1 Z0.240
G1 E0.80000 F2100.00000
M204 S300
G1 F840
G1 X131.809 Y98.849 E0.01753
G1 X131.570 Y98.506 E0.01720
G1 X132.099 Y98.595 E0.02209
M204 S800
G1 F8160
G1 X131.809 Y98.849 E-0.09415
G1 X131.570 Y98.506 E-0.10209
G1 X132.099 Y98.595 E-0.13111
G1 E-0.47265 F2100.00000
G1 Z0.840 F10200.000
G1 X133.394 Y98.530
G1 Z0.240
G1 E0.80000 F2100.00000
M204 S300
G1 F840
G1 X133.453 Y98.555 E0.00264
G1 X133.336 Y98.565 E0.00485
G1 X132.873 Y98.689 E0.01974
G1 X132.439 Y98.892 E0.01974
G1 X132.046 Y99.167 E0.01974
G1 X131.689 Y99.532 E0.02104
G1 X131.478 Y99.066 E0.02104
G1 X131.203 Y98.674 E0.01974
G1 X130.865 Y98.335 E0.01974
G1 X130.472 Y98.060 E0.01974
G1 X130.364 Y98.010 E0.00492
G1 X131.324 Y98.064 E0.03964
G1 X132.390 Y98.241 E0.04449
G1 X133.336 Y98.514 E0.04058
M204 S800
G1 F8160
G1 X133.453 Y98.555 E-0.03032
G1 X133.336 Y98.565 E-0.02880
G1 X132.873 Y98.689 E-0.11715
G1 X132.439 Y98.892 E-0.11715
G1 X132.046 Y99.167 E-0.11715
G1 X131.689 Y99.532 E-0.12485
G1 X131.478 Y99.066 E-0.12485
G1 X131.244 Y98.732 E-0.09973
G1 E-0.04000 F2100.00000
G1 Z0.840 F10200.000
G1 X131.307 Y99.637
G1 Z0.240
G1 E0.80000 F2100.00000
M204 S300
G1 F840
G1 X131.413 Y100.033 E0.01688
G1 X131.449 Y100.441 E0.01688
G1 X131.413 Y100.849 E0.01688
G1 X131.307 Y101.245 E0.01688
G1 X131.134 Y101.616 E0.01688
G1 X130.899 Y101.952 E0.01688
G1 X130.609 Y102.242 E0.01688
G1 X130.273 Y102.477 E0.01688
G1 X129.902 Y102.650 E0.01688
G1 X129.506 Y102.756 E0.01688
